!!!OTL: 186. Sher
!!!Genre:	Sher
!!!Mode:	Altered Dorian
!!!Listening/dance:	dance
!!!One_Mode:	no
**kern
*thru
*I"P1
*clefG2
*k[b-]
*g:dor
*M2/4
*>A
=1
!LO:TX:a:i:t=G-raised-fourth
4dd
16ffLL
16eeJ
8ddJ
=2
8cc#X
(8qee/
4dd)
8dd
=3
4b-
16ddLL
16cc#XJ
8b-J
=4
8a
4g
24b-LL
24ccn
24b-JJ
=5
8aL
8b-
8ccn
8b-J
=6
8ccnL
8b-
8a
8gJ
=7
2dd
=8
2gg
=9
4dd
16ffLL
16eeJ
8ddJ
=10
8cc#X
(8qee/
4dd)
8dd
=11
4b-
16ddLL
16cc#XJ
8b-J
=12
24aLL
24b-
24aJJ
4g
24b-LL
24ccn
24b-JJ
=13
8aL
8b-
8ccn
8b-J
=14
8ccnL
8b-
8aJ
8qcc/
8b-J
*>A1
=15
[2g
=16
4g]
4r
*>A
=1
!LO:TX:a:i:t=G-raised-fourth
4dd
16ffLL
16eeJ
8ddJ
=2
8cc#X
(8qee/
4dd)
8dd
=3
4b-
16ddLL
16cc#XJ
8b-J
=4
8a
4g
24b-LL
24ccn
24b-JJ
=5
8aL
8b-
8ccn
8b-J
=6
8ccnL
8b-
8a
8gJ
=7
2dd
=8
2gg
=9
4dd
16ffLL
16eeJ
8ddJ
=10
8cc#X
(8qee/
4dd)
8dd
=11
4b-
16ddLL
16cc#XJ
8b-J
=12
24aLL
24b-
24aJJ
4g
24b-LL
24ccn
24b-JJ
=13
8aL
8b-
8ccn
8b-J
=14
8ccnL
8b-
8aJ
8qcc/
8b-J
*>A2
=17:|!
2g
*>B
=18!|:
!!!Begin-Modulation
*g:dor
!LO:TX:a:i:t=G-raised-fourth
=27
4dd
16ffLL
16eeJ
8ddJ
=28
8cc#X
(8qee/
4dd)
8dd
=29
4b-
16ddLL
16cc#XJ
8b-J
=30
24aLL
24b-
24aJJ
4g
24ddLL
24ee
24ff#XJJ
=31
8ggL
8dd
8gg
8ddJ
=32
16ddLL
16cc#XJ
8b-J
8aL
(8qcc#/
8b-J)
*>B1
=33
2g
*>B
!!!Begin-Modulation
*g:dor
!LO:TX:a:i:t=G-raised-fourth
=27
4dd
16ffLL
16eeJ
8ddJ
=28
8cc#X
(8qee/
4dd)
8dd
=29
4b-
16ddLL
16cc#XJ
8b-J
=30
24aLL
24b-
24aJJ
4g
24ddLL
24ee
24ff#XJJ
=31
8ggL
8dd
8gg
8ddJ
=32
16ddLL
16cc#XJ
8b-J
8aL
(8qcc#/
8b-J)
!!!End-Modulation1
*>B2
!!!End-Modulation2
=34:|!
4g
4d
=35
4g
4r
==
*-
